X:1
T:Title
%%score { ( 1 3 ) | ( 2 4 ) }
L:1/8
Q:1/4=100
M:4/4
K:Bb
V:1 treble nm="Grand Piano"
V:3 treble 
V:2 bass 
V:4 bass 
V:1
 [DF]3 [_D=E] [_EG]2 [=DF]2 | [FB]3 F A2 G2 | E3 D E2 C2 | A3 E [DG]2 [DF]2 | %4
w: Haldor~Lillenas * * *||||
 [DB]3 [DA] [Dc]2 [DB]2 | [_Ad]2 [Ac]2 [Ge]2 dc | BBBB A2 [EFc]2 | [DFB]6 z2 | %8
w: ||||
 [DFB]3 [DFA] [DFc]2 [DFB]2 | [B,DF][B,_D=E][B,=DF][B,_EG] [DF]E C2 | c3 =B d2 c2 |[M:2/4] AF GA | %12
w: ||||
 .G2 z2 |[M:4/4] [DB]3 [DA] [Dc]2 [DB]2 | [_Ad]2 [Ac]2 [Ge]2 [Gd][Gc] | %15
w: |||
 [Ff]2 [FBd]2 [DFB]2 [EFc]2 |[M:3/4] [DFB]6 |] %17
w: ||
V:2
 [B,,B,]3 [B,,B,] [B,,B,]2 [B,,B,]2 | [D,B,]3 [D,B,] [E,B,F]2 [E,B,E]2 | %2
 [F,A,C]3 [F,_A,=B,] [F,=A,C]2 [F,A,]2 | [F,CE]3 [F,A,C] [B,,B,]2 [B,,B,]2 | %4
 [B,,F,]3 [B,,F,] [B,,F,]2 [B,,F,]2 | [B,,B,]2 [B,,B,]2 [E,B,]2 [E,E]2 | %6
 [F,DF][F,DF][F,DF][F,DF] [F,CF]2 F,,2 | B,,6 z2 | B,,3 B,, B,,2 B,,2 | z4 F,2 z2 | %10
 [F,A,E]3 [F,_A,E] [F,=A,E]2 [F,A,E]2 |[M:2/4] [F,CE][F,A,E] [F,B,E][F,CE] | [B,,B,]2 [B,,F,B,]2 | %13
[M:4/4] [B,,F,]3 [B,,F,] [B,,F,]2 [B,,F,]2 | [B,,B,]2 [B,,B,]2 [E,B,]2 [E,E][E,E] | %15
 [F,D]2 F,2 F,2 F,,2 |[M:3/4] B,,6 |] %17
V:3
 x8 | x8 | x8 | x8 | x8 | z4 z2 G2 | x8 | x8 | x8 | x8 | x8 |[M:2/4] x4 | %12
 D-[DF] D3/2-(3D/4G/4-[GA]/4 |[M:4/4] x8 | x8 | x8 |[M:3/4] x6 |] %17
V:4
 x8 | x8 | x8 | x8 | x8 | x8 | x8 | x8 | x8 | B,,B,,B,,B,, z C [F,A,]2 | x8 |[M:2/4] x4 | x4 | %13
[M:4/4] x8 | x8 | x8 |[M:3/4] x6 |] %17

